!!!OTL: 227. Der Lenz-Abend auf dem Lande.
!!!COM: Aug. Harder
!!!ODT: 1808
!!!ARE: Europa, Mitteleuropa, Deutschland
!!!SCT: B0227
!!!TXL: @@DE
!!!YEM: Copyright 1995, estate of Helmut Schaffrath.
**kern	**text
*ICvox	*
*Ivox	*
*clefG2	*
*M3/8	*
*k[]	*
*C:	*
!LO:TX:a:t=Sanft.	!
{8g	Dort
=1	=1
8cc	ſin-
8g	-ket
8g	die
=2	=2
8.g	Son-
16f	-ne
8e	im
=3	=3
(4f	We-
8g)	.
=4	=4
4e}	-ſten,
{8g	um-
=5	=5
8.f	-floſ-
16g	-ſen
8f	von
=6	=6
8.e	gol-
16g	-denem
8e	.
=7	=7
[4.d	Schein.
=8	=8
8d]	.
8r}	.
{8g	Bald
=9	=9
8.b	birgt
16a	ſie
8g	ſich
=10	=10
8cc	hin-
8g	-ter
8ee	den
=11	=11
4.ff	Ae-
=12	=12
4ee}	-ſten,
{8ee	dort
=13	=13
8dd	hin-
8dd	-ter
8dd	dem
=14	=14
8.g	blü-
16a	-hen-
8b	-den
=15	=15
[4.cc	Hain.
=16	=16
8cc]	.
8r}	.
==	==
!!!AGN: Tageszeiten - Lied, Abend
!!!GTL: Tageszeitenlieder
!!!ONB: ESAC (Essen Associative Code) Database: BOEHME
!!!AMT: simple triple
!!!AIN: vox
!!!EED: Helmut Schaffrath
!!!EEV: 1.0
!!@@COMMENT:"Gedicht von Ernſt Heinr. Schwabe. Ʒuerſt in J. Ch. Dolʒ. "Ʒeitung für die Jugend".
!!Leipʒig, 1808 S. 48. Wurde auch geſungen nach der Mel. "Willkommen, o ſeliger Abend!""
!!@@END:
!!!Text: E. H. Schwabe
!!!URL-scan: https://archive.org/details/BoehmeVtLieder1895/page/n205/mode/2up
!!!ENC: Anna Maria Matuszewska
!!!EEV: 2024/02/07
*-	*-
